logos/mapzen.svg

<?xml version="1.0" encoding="UTF-8"?>
<svg width="512px" height="150px" viewBox="0 0 512 150" version="1.1" xmlns="http://www.w3.org/2000/svg" xmlns:xlink="http://www.w3.org/1999/xlink" preserveAspectRatio="xMidYMid">
    <g fill="#54485B">
        <path d="M343.617583,56.5213582 C355.925879,56.5213582 365.736143,66.3325838 365.736143,80.9637808 C365.736143,95.5949778 355.925879,105.578448 343.617583,105.578448 C336.473749,105.578448 332.33987,101.963229 328.490821,96.887296 L328.490821,96.887296 L328.490821,127.879838 L316.943675,127.879838 L316.943675,57.6346956 L328.490821,57.6346956 L328.490821,64.6110967 C331.377608,59.7920875 336.473749,56.5213582 343.617583,56.5213582 Z M434.084666,56.6541504 C447.770921,56.6541504 457.925675,65.9101506 457.925675,80.6260267 C457.925675,82.0896276 457.839071,83.6157755 457.582147,85.5402999 L457.582147,85.5402999 L422.811764,85.5402999 C423.328499,91.3138732 427.629811,95.6931286 433.913383,95.6931286 C439.077845,95.6931286 441.573953,93.2383976 443.207874,90.351611 L443.207874,90.351611 L456.290791,90.351611 C453.6234,99.011971 445.5327,105.700656 433.913383,105.700656 C420.229052,105.700656 410.417827,96.0058638 410.417827,81.0301769 C410.417827,66.0554522 420.229052,56.6541504 434.084666,56.6541504 Z M277.157981,56.5213582 C284.215212,56.5213582 290.000333,59.7920875 292.887119,64.6110967 L292.887119,64.6110967 L292.887119,57.6346956 L305.396528,57.6346956 L305.396528,104.785544 L292.887119,104.785544 L292.887119,96.887296 C290.000333,101.963229 284.296042,105.578448 277.238811,105.578448 C265.019043,105.578448 254.879686,95.5949778 254.879686,80.9637808 C254.879686,66.3325838 264.938213,56.5213582 277.157981,56.5213582 Z M193.437319,44.8173628 L212.718167,89.3123678 L231.996128,44.8173628 L245.422573,44.8173628 L245.422573,104.889469 L233.373126,104.889469 L233.373126,66.9349599 L217.020441,104.889469 L208.328327,104.889469 L192.062246,67.1072048 L192.062246,104.889469 L179.926195,104.889469 L179.926195,44.8173628 L193.437319,44.8173628 Z M404.807838,57.2113002 L404.807838,67.1072048 L384.754293,94.9069603 L404.807838,94.9069603 L404.807838,104.889469 L370.638869,104.889469 L370.638869,94.9069603 L390.778055,67.1072048 L370.638869,67.1072048 L370.638869,57.2113002 L404.807838,57.2113002 Z M493.49666,56.5213582 C503.996865,56.5213582 512,63.749872 512,76.8327891 L512,104.889469 L499.951515,104.889469 L499.951515,78.5552385 C499.951515,70.9812725 495.733919,67.0225258 489.365668,67.0225258 C482.910813,67.0225258 478.693218,70.9812725 478.693218,78.5552385 L478.693218,104.889469 L466.557167,104.889469 L466.557167,57.2113002 L478.693218,57.2113002 L478.693218,64.3522481 C481.619457,59.3619562 486.955201,56.5213582 493.49666,56.5213582 Z M279.59058,67.0225258 C273.393611,67.0225258 267.024398,71.7558936 267.024398,80.9637808 C267.024398,90.171668 273.393611,95.078243 279.59058,95.078243 C285.87319,95.078243 292.242404,90.2582716 292.242404,81.0503844 C292.242404,71.841535 285.87319,67.0225258 279.59058,67.0225258 Z M340.671137,67.0225258 C334.387564,67.0225258 328.104954,71.841535 328.104954,81.0503844 C328.104954,90.2582716 334.387564,95.078243 340.671137,95.078243 C346.953747,95.078243 353.236357,90.171668 353.236357,80.9637808 C353.236357,71.7558936 346.953747,67.0225258 340.671137,67.0225258 Z M433.913383,67.4295627 C428.146546,67.4295627 423.584461,71.1063666 422.811764,77.8422022 L422.811764,77.8422022 L445.360455,77.8422022 C445.015965,71.1063666 440.10939,67.4295627 433.913383,67.4295627 Z"></path>
        <path d="M102.229295,60.623482 L149.290653,74.5127749 C150.117236,74.7581517 150.117236,75.1526793 149.290653,75.3970939 L149.290653,75.3970939 L93.7344438,91.7950043 C92.9078606,92.0384567 92.0389378,92.9064172 91.7945232,93.7339627 L91.7945232,93.7339627 L75.3966127,149.291134 C75.2753677,149.703945 75.1146699,149.910831 74.9549344,149.910831 C74.7951988,149.910831 74.6354633,149.703945 74.513256,149.291134 L74.513256,149.291134 L61.9028096,106.564767 L89.1540757,89.4499713 L90.3453563,88.7022935 L102.229295,60.623482 Z M22.6059452,85.5903375 L27.6635954,87.0828062 L26.6185786,122.494056 L33.4843195,120.157683 L34.4003932,89.0718022 L39.4551566,90.5642709 L38.6353092,118.405404 L59.5895313,111.275041 L61.0329246,116.168144 L38.4736491,123.84411 L38.3398947,128.435063 L62.4792047,121.064134 L63.9216358,125.954351 L33.0349431,135.385483 L33.3226595,125.598314 L21.3068912,129.686966 L22.6059452,85.5903375 Z M127.304886,85.5903375 L128.602978,129.686966 L116.46404,125.555974 L116.753681,135.385483 L85.9786103,125.988992 L87.4220037,121.1007 L111.448729,128.435063 L111.31305,123.80177 L88.8759819,116.168144 L90.3212997,111.275041 L111.153314,118.362102 L110.333467,90.5998746 L115.390155,89.1074059 L116.304304,120.116306 L123.292252,122.494056 L122.24916,87.0828062 L127.304886,85.5903375 Z M106.967474,37.9785652 L86.781137,85.669243 L42.9250742,113.21015 L63.1123732,65.5194722 L106.967474,37.9785652 Z M74.9549344,0 C75.1146699,0 75.2753677,0.205924115 75.3966127,0.619696869 L75.3966127,0.619696869 L88.3236434,44.4151372 L59.548154,62.4864217 L48.1453467,89.4239902 L25.0905062,82.6198341 L22.7146808,81.9183449 L0.619215737,75.3970939 C-0.206405246,75.1526793 -0.206405246,74.7581517 0.619215737,74.5127749 L0.619215737,74.5127749 L56.1773494,58.1148644 C57.0029704,57.8714121 57.8718932,57.0044138 58.1153455,56.1768683 L58.1153455,56.1768683 L74.513256,0.619696869 C74.6354633,0.205924115 74.7951988,0 74.9549344,0 Z M81.1028277,68.5813906 C77.8523059,65.3299065 72.5819957,65.3299065 69.3305117,68.5813906 C66.0790277,71.8309501 66.0790277,77.1022225 69.3305117,80.3537065 C72.5819957,83.6042283 77.8523059,83.6042283 81.1028277,80.3537065 C84.3543117,77.1022225 84.3543117,71.8309501 81.1028277,68.5813906 Z M33.0349431,13.5496143 L64.1862579,23.0606141 L62.7428646,27.9498684 L38.3398947,20.499072 L38.5487056,27.6313596 L60.8298873,34.436478 L59.3855317,39.3257323 L38.7074789,33.0094431 L39.4830622,59.3378997 L34.4282988,60.8313307 L33.5622628,31.4380689 L26.6147296,29.3162807 L27.6029729,62.8453455 L22.5482094,64.3378142 L21.309778,22.3658607 L33.4034895,26.0590231 L33.0349431,13.5496143 Z M116.753681,13.5496143 L116.38321,26.0975136 L128.600091,22.3658607 L127.362622,64.3378142 L122.306896,62.8453455 L123.296101,29.3162807 L116.225399,31.4755972 L115.361287,60.795727 L110.306524,59.302296 L111.080183,33.0469714 L90.5243371,39.3257323 L89.0828683,34.436478 L111.237994,27.6688878 L111.448729,20.499072 L87.1573816,27.915227 L85.7139882,23.0269349 L116.753681,13.5496143 Z"></path>
    </g>
</svg>

<svg width="512" height="150" xmlns="http://www.w3.org/2000/svg" preserveAspectRatio="xMidYMid">
	<g fill="#54485B">
		<path d="M343.618 56.521c12.308 0 22.118 9.812 22.118 24.443 0 14.631-9.81 24.614-22.118 24.614-7.144 0-11.278-3.615-15.127-8.69v30.992h-11.547V57.635h11.547v6.976c2.887-4.819 7.983-8.09 15.127-8.09Zm90.467.133c13.686 0 23.84 9.256 23.84 23.972 0 1.464-.086 2.99-.343 4.914h-34.77c.516 5.774 4.818 10.153 11.101 10.153 5.165 0 7.661-2.455 9.295-5.341h13.083c-2.668 8.66-10.758 15.349-22.378 15.349-13.684 0-23.495-9.695-23.495-24.67 0-14.976 9.811-24.377 23.667-24.377Zm-156.927-.133c7.057 0 12.842 3.271 15.73 8.09v-6.976h12.509v47.15h-12.51v-7.898c-2.887 5.076-8.591 8.691-15.648 8.691-12.22 0-22.36-9.983-22.36-24.614s10.06-24.443 22.279-24.443Zm-83.72-11.704 19.28 44.495 19.278-44.495h13.427v60.072h-12.05V66.935l-16.353 37.954h-8.692l-16.266-37.782v37.782h-12.136V44.817h13.511Zm211.37 12.394v9.896l-20.054 27.8h20.054v9.982h-34.17v-9.982l20.14-27.8h-20.14v-9.896h34.17Zm88.689-.69c10.5 0 18.503 7.229 18.503 20.312v28.056h-12.048V78.555c0-7.574-4.218-11.532-10.586-11.532-6.455 0-10.673 3.958-10.673 11.532v26.334h-12.136V57.211h12.136v7.141c2.926-4.99 8.262-7.83 14.804-7.83ZM279.59 67.023c-6.197 0-12.567 4.733-12.567 13.94 0 9.209 6.37 14.115 12.567 14.115 6.282 0 12.651-4.82 12.651-14.028s-6.369-14.027-12.651-14.027Zm61.08 0c-6.283 0-12.566 4.819-12.566 14.027 0 9.208 6.283 14.028 12.566 14.028s12.565-4.906 12.565-14.114c0-9.208-6.282-13.941-12.565-13.941Zm93.242.407c-5.766 0-10.329 3.676-11.101 10.412h22.548c-.344-6.736-5.25-10.412-11.447-10.412Z"/>
		<path d="m102.23 60.623 47.06 13.89c.827.245.827.64 0 .884L93.735 91.795c-.826.243-1.695 1.111-1.94 1.939l-16.397 55.557c-.122.413-.282.62-.442.62-.16 0-.32-.207-.442-.62l-12.61-42.726L89.154 89.45l1.191-.748 11.884-28.079ZM22.605 85.59l5.058 1.493-1.045 35.411 6.865-2.336.916-31.086 5.055 1.492-.82 27.841 20.955-7.13 1.443 4.893-22.56 7.676-.133 4.591 24.14-7.37 1.442 4.89-30.887 9.43.288-9.787-12.016 4.089 1.299-44.097Zm104.699 0 1.298 44.097-12.139-4.131.29 9.83-30.775-9.397 1.443-4.888 24.027 7.334-.136-4.633-22.437-7.634 1.445-4.893 20.832 7.087-.82-27.762 5.057-1.493.914 31.01 6.988 2.377-1.043-35.411 5.056-1.493ZM106.967 37.98l-20.186 47.69-43.856 27.541 20.187-47.69 43.855-27.541ZM74.955 0c.16 0 .32.206.442.62l12.927 43.795-28.776 18.071-11.403 26.938-23.054-6.804-2.376-.702-22.096-6.52c-.825-.245-.825-.64 0-.885l55.558-16.398c.826-.244 1.695-1.11 1.938-1.938L74.513.62c.122-.414.282-.62.442-.62Zm6.148 68.581a8.323 8.323 0 0 0-11.772 0 8.325 8.325 0 1 0 11.772 0ZM33.035 13.55l31.151 9.51-1.443 4.89L38.34 20.5l.209 7.131 22.28 6.805-1.443 4.89-20.679-6.317.776 26.329-5.055 1.493-.866-29.393-6.947-2.122.988 33.53-5.055 1.492-1.238-41.972 12.093 3.693-.368-12.51Zm83.719 0-.37 12.548 12.216-3.732-1.237 41.972-5.056-1.493.99-33.529-7.072 2.16-.864 29.32-5.054-1.494.773-26.255-20.556 6.279-1.441-4.89 22.155-6.767.21-7.17-24.29 7.416-1.444-4.888 31.04-9.477Z"/>
	</g>
</svg>
